assets/img/braze_icons/check-verified-03.svg

<svg fill="none" height="24" viewBox="0 0 24 24" width="24" xmlns="http://www.w3.org/2000/svg"><path clip-rule="evenodd" d="m10.596 1.47749c.414-.31865.909-.477611 1.404-.47749.495-.000121.99.15884 1.404.47749l1.1736.90115 1.4708-.19354c1.0351-.1364 2.0309.44037 2.4302 1.40289l.565 1.36867 1.3666.56423.002.00081c.9625.39935 1.5391 1.39563 1.4027 2.43064l-.1934 1.46954.9017 1.17442c.2382.3102.3873.6662.447 1.0337.0435.2679.0394.542-.0123.8088-.0664.343-.2114.6741-.4347.9649l-.9017 1.1744.1934 1.4696c.1364 1.035-.4402 2.0313-1.4027 2.4306l-.002.0008-1.3666.5642-.565 1.3687c-.3993.9625-1.3951 1.5393-2.4302 1.4029l-1.4708-.1935-1.1736.9011c-.414.3187-.909.4776-1.404.4775-.495.0001-.99-.1588-1.404-.4775l-1.17364-.9011-1.4708.1935c-1.03508.1364-2.03083-.4404-2.43012-1.4029l-.56502-1.3687-1.36663-.5642-.00195-.0008c-.96253-.3993-1.53912-1.3956-1.40274-2.4306l.19335-1.4696-.90163-1.1744c-.25935-.3377-.41303-.7296-.46073-1.1315-.069175-.5828.08474-1.1863.46073-1.6759l.90163-1.17442-.19335-1.46954c-.13638-1.03501.44021-2.03129 1.40274-2.43064l.00195-.00081 1.36663-.56423.56502-1.36867c.39929-.96252 1.39504-1.53929 2.43012-1.40289l1.4708.19354zm5.6111 8.72961c.3905-.39052.3905-1.02368 0-1.41421-.3905-.39052-1.0237-.39052-1.4142 0l-3.7929 3.79291-1.29289-1.2929c-.39053-.3905-1.02369-.3905-1.41422 0-.39052.3905-.39052 1.0237 0 1.4142l2.00001 2c.3905.3905 1.0237.3905 1.4142 0z" fill="#801ed7" fill-rule="evenodd"/></svg>

<svg width="24" height="24" viewBox="0 0 24 24" fill="none" xmlns="http://www.w3.org/2000/svg">
<path fill-rule="evenodd" clip-rule="evenodd" d="M10.596 1.47749C11.01 1.15884 11.505 0.999879 12 1C12.495 0.999879 12.99 1.15884 13.404 1.47749L14.5776 2.37864L16.0484 2.1851C17.0835 2.0487 18.0793 2.62547 18.4786 3.58799L19.0436 4.95666L20.4102 5.52089L20.4122 5.5217C21.3747 5.92105 21.9513 6.91733 21.8149 7.95234L21.6215 9.42188L22.5232 10.5963C22.7614 10.9065 22.9105 11.2625 22.9702 11.63C23.0137 11.8979 23.0096 12.172 22.9579 12.4388C22.8915 12.7818 22.7465 13.1129 22.5232 13.4037L21.6215 14.5781L21.8149 16.0477C21.9513 17.0827 21.3747 18.079 20.4122 18.4783L20.4102 18.4791L19.0436 19.0433L18.4786 20.412C18.0793 21.3745 17.0835 21.9513 16.0484 21.8149L14.5776 21.6214L13.404 22.5225C12.99 22.8412 12.495 23.0001 12 23C11.505 23.0001 11.01 22.8412 10.596 22.5225L9.42236 21.6214L7.95156 21.8149C6.91648 21.9513 5.92073 21.3745 5.52144 20.412L4.95642 19.0433L3.58979 18.4791L3.58784 18.4783C2.62531 18.079 2.04872 17.0827 2.1851 16.0477L2.37845 14.5781L1.47682 13.4037C1.21747 13.066 1.06379 12.6741 1.01609 12.2722C0.946915 11.6894 1.10083 11.0859 1.47682 10.5963L2.37845 9.42188L2.1851 7.95234C2.04872 6.91733 2.62531 5.92105 3.58784 5.5217L3.58979 5.52089L4.95642 4.95666L5.52144 3.58799C5.92073 2.62547 6.91648 2.0487 7.95156 2.1851L9.42236 2.37864L10.596 1.47749ZM16.2071 10.2071C16.5976 9.81658 16.5976 9.18342 16.2071 8.79289C15.8166 8.40237 15.1834 8.40237 14.7929 8.79289L11 12.5858L9.70711 11.2929C9.31658 10.9024 8.68342 10.9024 8.29289 11.2929C7.90237 11.6834 7.90237 12.3166 8.29289 12.7071L10.2929 14.7071C10.6834 15.0976 11.3166 15.0976 11.7071 14.7071L16.2071 10.2071Z" fill="#801ED7"/>
</svg>
